packages/symbols/svgs/duotone/users-duotone.svg

<svg width="24" height="24" viewBox="0 0 24 24" fill="none" xmlns="http://www.w3.org/2000/svg">
<path opacity="0.5" fill-rule="evenodd" clip-rule="evenodd" d="M14.1764 3.57014C14.5452 2.64742 15.4461 2 16.4998 2C17.8805 2 18.9998 3.11928 18.9998 4.5V5.5C18.9998 6.88072 17.8805 8 16.4998 8C16.1079 8 15.765 7.91601 15.4369 7.75656C14.9401 7.51519 14.3418 7.72221 14.1004 8.21896C13.859 8.71571 14.066 9.31407 14.5628 9.55544C15.1566 9.84399 15.7977 10 16.4998 10C17.5978 10 18.604 9.60676 19.3851 8.95344L21.5394 10.246C21.8249 10.4169 22 10.7257 22 11.06V14H16.667C16.1147 14 15.667 14.4477 15.667 15C15.667 15.5523 16.1147 16 16.667 16H23C23.5523 16 24 15.5523 24 15V11.06C24 10.0244 23.4568 9.0631 22.5666 8.52998L20.6025 7.3515C20.8577 6.7868 20.9998 6.15999 20.9998 5.5V4.5C20.9998 2.01472 18.9851 0 16.4998 0C14.6036 0 12.9824 1.16858 12.3192 2.82786C12.1143 3.3407 12.3638 3.9226 12.8767 4.12758C13.3895 4.33255 13.9714 4.08298 14.1764 3.57014Z" fill="black"/>
<path fill-rule="evenodd" clip-rule="evenodd" d="M6 7C6 4.79128 7.79128 3 10 3C12.2087 3 14 4.79128 14 7V9C14 11.2087 12.2087 13 10 13C7.79128 13 6 11.2087 6 9V7ZM10 1C6.68672 1 4 3.68672 4 7V9C4 10.3871 4.4709 11.6644 5.26152 12.6807L1.79709 14.7562C0.682259 15.424 0 16.6288 0 17.929L0 22C0 22.5523 0.447715 23 1 23H19C19.5523 23 20 22.5523 20 22V17.929C20 16.6295 19.3167 15.4247 18.2029 14.7562L14.7385 12.6807C15.5291 11.6644 16 10.3871 16 9V7C16 3.68672 13.3133 1 10 1ZM13.1883 14.0835C12.2646 14.6641 11.1715 15 10 15C8.82855 15 7.73542 14.6641 6.81167 14.0835L2.82491 16.4719C2.31376 16.778 2 17.3312 2 17.929V21H18V17.929C18 17.3326 17.6866 16.7789 17.1744 16.4714L13.1883 14.0835Z" fill="black"/>
</svg>

<svg width="24" height="24" viewBox="0 0 24 24" xmlns="http://www.w3.org/2000/svg"><path opacity=".5" fill-rule="evenodd" clip-rule="evenodd" d="M14.176 3.57A2.498 2.498 0 0 1 16.5 2 2.5 2.5 0 0 1 19 4.5v1A2.5 2.5 0 0 1 16.5 8c-.392 0-.735-.084-1.063-.243a1 1 0 0 0-.874 1.798A4.366 4.366 0 0 0 16.5 10a4.482 4.482 0 0 0 2.885-1.047l2.154 1.293c.286.17.461.48.461.814V14h-5.333a1 1 0 1 0 0 2H23a1 1 0 0 0 1-1v-3.94a2.949 2.949 0 0 0-1.433-2.53l-1.965-1.178A4.485 4.485 0 0 0 21 5.5v-1A4.5 4.5 0 0 0 16.5 0a4.498 4.498 0 0 0-4.18 2.828 1 1 0 0 0 1.856.742Z"/><path fill-rule="evenodd" clip-rule="evenodd" d="M6 7a4 4 0 0 1 8 0v2a4 4 0 0 1-8 0V7Zm4-6a6 6 0 0 0-6 6v2c0 1.387.47 2.664 1.262 3.68l-3.465 2.076A3.698 3.698 0 0 0 0 17.93V22a1 1 0 0 0 1 1h18a1 1 0 0 0 1-1v-4.071c0-1.3-.683-2.504-1.797-3.173l-3.464-2.075A5.974 5.974 0 0 0 16 9V7a6 6 0 0 0-6-6Zm3.188 13.084A5.971 5.971 0 0 1 10 15a5.972 5.972 0 0 1-3.188-.916l-3.987 2.388A1.7 1.7 0 0 0 2 17.929V21h16v-3.071a1.7 1.7 0 0 0-.826-1.458l-3.986-2.387Z"/></svg>
